X: 75
T: D'ung aultre amer
N: Derived from Ock3003-Dung_aultre_amer.krn
C: Johannes Ockeghem
%%abc-version 2.0
%%abcx-abcm2ps-target-version 5.9.1 (29 Sep 2008)
%%abc-creator hum2abc beta
%%abcx-conversion-date 2019/02/17 07:26:16
%%abc-edited-by Jesse Rodin
%%abc-edited-by Jesse Rodin (8/16/2012)
%%abcx-initial-encoding-date 2012/08/16/
%%humdrum-veritas 585955972
%%humdrum-veritas-data 1301325595
%%linebreak <none>
%%barnumbers 0
L: 1/4
M: 2/1
Q: 1/2=120
V: 1 clef=treble
V: 2 clef=treble-8
V: 3 clef=bass
K: F
[V:1] G8 | 
[V:2] G6E2 | 
[V:3] D6CB, | 
[V:1] A4G4 | 
[V:2] F4G4 | 
[V:3] A,4B,4 | 
[V:1] d6cB | 
[V:2] B8 | 
[V:3] G,8 | 
[V:1] A4A4 | 
[V:2] c8 | 
[V:3] F,8 | 
[V:1] A4d4- | 
[V:2] d6c2 | 
[V:3] D,8 | 
[V:1] d4c4 | 
[V:2] B4A4 | 
[V:3] G,4A,4 | 
[V:1] B2B4AG | 
[V:2] G8 | 
[V:3] B,2C2D4- | 
[V:1] F8 | 
[V:2] D8 | 
[V:3] D2CB,A,4 | 
[V:1] z4F4 | 
[V:2] B4A4 | 
[V:3] G,4D,4 | 
[V:1] G4B4 | 
[V:2] B4G4 | 
[V:3] G,4z4 | 
[V:1] A8 | 
[V:2] F2F4EF | 
[V:3] C6A,2 | 
[V:1] G6F2 | 
[V:2] G4C4- | 
[V:3] B,4C4- | 
[V:1] E4D4- | 
[V:2] C4G4 | 
[V:3] C4B,4 | 
[V:1] D4D4 | 
[V:2] F2G4FE | 
[V:3] A,2B,2G,2A,2- | 
[V:1] D4E4- | 
[V:2] F2D2C4 | 
[V:3] A,2B,2C4 | 
[V:1] E2D2E4 | 
[V:2] G8 | 
[V:3] B,2B,4G,2 | 
[V:1] F2D2D4- | 
[V:2] D4F4 | 
[V:3] B,4A,4- | 
[V:1] D4^C2=B,2 | 
[V:2] E8 | 
[V:3] A,4G,4 | 
[V:1] !fermata!D8- | 
[V:2] !fermata!D8 | 
[V:3] !fermata!A,4F,4 | 
[V:1] D8 | 
[V:2] B8 | 
[V:3] G,2D4B,2 | 
[V:1] z8 | 
[V:2] c4c4 | 
[V:3] A,4A,4 | 
[V:1] B8 | 
[V:2] d8 | 
[V:3] G,8 | 
[V:1] c4c4 | 
[V:2] _e8 | 
[V:3] z4C4 | 
[V:1] d8 | 
[V:2] d4f4- | 
[V:3] B,6A,G, | 
[V:1] d4d4 | 
[V:2] f4B4 | 
[V:3] F,4G,4 | 
[V:1] c2c4A2 | 
[V:2] A8 | 
[V:3] A,4F,4 | 
[V:1] G4F4- | 
[V:2] B8 | 
[V:3] _E,4D,4 | 
[V:1] F2D2C4 | 
[V:2] f4e4 | 
[V:3] B,,4C,4 | 
[V:1] D6B,2 | 
[V:2] f4d4- | 
[V:3] B,,8 | 
[V:1] B,4C4 | 
[V:2] d4e4 | 
[V:3] D,4C,4 | 
[V:1] B,4B4 | 
[V:2] f4B4 | 
[V:3] D,6B,,2 | 
[V:1] G4A4 | 
[V:2] c8 | 
[V:3] _E,4F,4 | 
[V:1] B8 | 
[V:2] B6A2 | 
[V:3] G,6F,2 | 
[V:1] z8 | 
[V:2] G4F4 | 
[V:3] _E,4D,4 | 
[V:1] B8 | 
[V:2] G8 | 
[V:3] z4_E,4 | 
[V:1] A4A4 | 
[V:2] D8 | 
[V:3] F,8 | 
[V:1] G2c4B2 | 
[V:2] E8 | 
[V:3] G,8 | 
[V:1] A2G2A4 | 
[V:2] F8 | 
[V:3] D,8 | 
[V:1] B4G4 | 
[V:2] G8 | 
[V:3] D4B,3A, | 
[V:1] d4c2c2- | 
[V:2] B4A4 | 
[V:3] G,4A,2F,2- | 
[V:1] c2B2A2G2 | 
[V:2] c8 | 
[V:3] F,2G,2A,4 | 
[V:1] B4G2A2- | 
[V:2] d4B2c2 | 
[V:3] G,2D,2G,2F,2- | 
[V:1] AGFEF2E2 | 
[V:2] d3cA2G2- | 
[V:3] F,G,A,4B,2- | 
[V:1] D2G4^F2 | 
[V:2] G2B2A4 | 
[V:3] B,2G,2D,4 | 
[V:1] G8 ||  
[V:2] G8 ||  
[V:3] D8 ||  



